X: 140
T:Blue Bonnets
M:6/8
L:1/8
R:Jig
K:Bb
|:"Bb" B3 "Eb"B3|"Bb"Bdc B2 F|"Eb"BGG G2 f|"Bb"gfd "F7"c2 B|"Bb"B3 "Eb"B
3|!
"Bb"Bdc B2 F|"Eb"B>AG "Bb"FDF|"Eb"Gd f fdB|"Eb
"g>fd
"Bb"dcB|"Bb"B>df "Eb"gab|!
"Gm"B>cd "F7"c2 "Bb"B|"Bb"B>df fdB|"Eb"g>fd "Bb"dcB|"Gm"B>AG "Bb"FDF|
"Eb"G<Bd "F7"c2 "Bb"B:||
% <A name="D1X141">
